!!!COM: Martinů, Bohuslav (Jan)
!!!OTL: [T510_Mau-w67p32m1-9]
**kern	**kern	**dynam
*grp:A	*grp:B	*
*part1	*part1	*part1
*staff2	*staff1	*
*I"Piano	*	*
*I'Pno.	*	*
*clefF4	*clefG2	*
*k[]	*k[]	*
*C:	*C:	*
*M6/8	*M6/8	*
=1	=1	=1
!	!LO:TX:t=Allegretto poco moderato [quarter]=72 (66)	!
4.ryy	(4B-X 4d 4b-X	4ryy
.	[8c [8e-X [8cc	.
4ryy	8c] 8e-] 8cc]	.
.	4d 4f)	.
8ryy	.	.
=2	=2	=2
*	*^	*
8ryy	(>4c 4e-X 4b-X	4ryy	.
4ryy	.	.	.
.	[8b-	8e- 8g	.
4ryy	4b-])	4d 4f	.
*	*v	*v	*
8ryy	(>[8c [8e- [8b-	.
=3	=3	=3
8ryy	8cL] 8e-] 8b-]	.
4ryy	8B-X 8d	.
.	[>8A<J [8f	4ryy
4ryy	8A<] 8f]	.
.	4G<~> 4e-X)	.
8ryy	.	.
=4	=4	=4
8ryy	(>8F< 8d	.
8rBByy	4A< 4c<)	4ryy
8ryy	.	.
8ryy	4G<~ 4B-X<	.
4ryy	.	.
.	[8F< [8d	.
=5	=5	=5
4.ryy	4.F<_ 4.d_	.
4ryy	8F<] 8d]	.
.	(4B-X 4d [4b-X	4ryy
8ryy	.	.
!!linebreak:original
=6	=6	=6
8ryy	4c 4e-X 4b-X])	.
4ryy	.	.
.	(8d 8f	.
8ryy	4g 4b-y 4dd	4ryy
4ryy	.	.
.	[8f [8a [8dd	.
=7	=7	=7
4.ryy	8fL] 8a] 8dd]	.
.	8e-X 8g'>)	.
.	([8gJ [8b-X [8dd	4ryy
4ryy	8g] 8b-] 8dd]	.
.	4f 4a 4dd)	.
8ryy	.	.
=8	=8	=8
8ryy	(4f 4a 4cc	.
4ryy	.	.
.	[8e-X [8g [8cc	.
4ryy	8e-L] 8g] 8cc]	.
.	8d 8f)	4ryy
8ryy	([8gJ [8b-X	4ryy
=9	=9	=9
8ryy	8g] 8b-]	4ryy
4ryy	4f 4a-X	.
4ryy	8e-X' 8g)	4ryy
.	4d~ 4f	.
8ryy	.	4ryy
=	=	=
*-	*-	*-
!!!system-decoration: [({(s1,s2)})]
!!!RDF**kern: > = above
!!!RDF**kern: < = below
!!!EED: Rafael Laurindo
!!!EED2: Jason Lee
!!!EEV2: 2022/02/08
